!! 00010] TT[TB
!! Eigene Aufnahme
!!!OTL: Shan dan zi liu ma The horse of deep violet like sandalwood colour
!!!ARE: Neimeng
!! Ethnic Group: Menggu
!! MM, S. 842
!!!SCT: C0570
!!!YEM: Copyright 1995, estate of Helmut Schaffrath.
**kern
*ICvox
*Ivox
*M2/4
*k[]
*C:
{8a
8a
8a
16e
16g
=1
4a
8a
16e
16g
=2
2a}
=3
{16a
16cc
8c
8d
8e
=4
4d
8e
8a
=5
2A}
=6
{8a
16a
16g
8a
8a
=7
4dd
16ee
16gg
8ee
=8
2dd}
=9
{8ee
8e
8e
8g
=10
4a
8dd
16cc
16ee
=11
2a}
==
!!!AGN: NN
!! Saenger: Chao Lun Batou, der das Buch nur zum Nachschlagen
!!    benutzte und ansonsten auswendig sang. Da er aus dem Osten der
!!    Neimeng kommt, kennt er nicht so viele Lieder des Westens.
!!    Alle Lieder wurden mit erkaelteter, halber Stimme in meinem
!!    Zimmer gesungen. FOTO VORHANDEN (DIAS)  31.3.87
!!    Vereinzelt Verzierungen. OFFENBAR ANDERES LIED!
!!!ONB: ESAC (Essen Associative Code) Database: CHINA
!!!AMT: simple duple
!!!AIN: vox
!!!EED: Helmut Schaffrath
!!!EEV: 1.0
*-
